client/resources/icons/tech/mosquitto.svg

<svg width="24" height="24" viewBox="0 0 24 24" fill="none" xmlns="http://www.w3.org/2000/svg">
<g clip-path="url(#clip0)">
<path d="M1.35301 11.424C1.35301 14.061 2.31701 16.529 3.98901 18.437L2.98201 19.34C1.05754 17.1523 -0.00273589 14.3377 5.3019e-06 11.424C5.3019e-06 8.065 1.38001 5.029 3.60401 2.85L3.65401 2.895L6.63701 5.57C5.28398 6.80949 4.40189 8.47925 4.14065 10.2955C3.87942 12.1118 4.25515 13.9624 5.20401 15.533L6.23401 14.61C5.50864 13.2959 5.2536 11.7736 5.51109 10.2948C5.76858 8.8161 6.52316 7.46956 7.65001 6.478L8.67001 7.393L9.57901 8.207L10.52 9.051C10.1178 9.30108 9.7863 9.64982 9.55684 10.0641C9.32739 10.4784 9.20765 10.9444 9.20901 11.418C9.20901 12.648 10.004 13.691 11.108 14.064L11.203 15.361C10.5466 15.2278 9.93389 14.9329 9.42033 14.5029C8.90678 14.073 8.50865 13.5217 8.26205 12.899C8.01545 12.2763 7.92818 11.6019 8.00815 10.9369C8.08812 10.272 8.3328 9.63748 8.72001 9.091L7.82001 8.282L7.81601 8.279C7.10034 9.23064 6.73062 10.3979 6.76789 11.588C6.80516 12.7782 7.2472 13.92 8.02101 14.825L4.99801 17.535C3.55754 15.8847 2.7465 13.7785 2.70807 11.5883C2.66965 9.39814 3.40632 7.26481 4.78801 5.565L3.77701 4.66C2.34214 6.39862 1.49898 8.54944 1.37001 10.8L1.36401 10.808L1.36901 10.812C1.3578 11.0158 1.35213 11.2199 1.35201 11.424H1.35301ZM12.893 14.063C13.3938 13.8937 13.8362 13.5858 14.1689 13.175C14.5016 12.7642 14.7109 12.2675 14.7725 11.7425C14.8341 11.2175 14.7454 10.6858 14.5168 10.2091C14.2882 9.73252 13.929 9.33057 13.481 9.05L14.422 8.206L15.33 7.392L16.351 6.477C17.478 7.46844 18.2328 8.81491 18.4905 10.2937C18.7481 11.7724 18.4933 13.2948 17.768 14.609L18.797 15.532C19.7459 13.9614 20.1216 12.1107 19.8604 10.2945C19.5991 8.47825 18.717 6.80849 17.364 5.569L20.345 2.896L20.395 2.851C21.5378 3.96698 22.4455 5.30048 23.0646 6.77287C23.6838 8.24526 24.0018 9.82673 24 11.424C24 14.404 22.905 17.193 21.018 19.34L20.011 18.437C21.8533 16.3389 22.7943 13.5993 22.63 10.812L22.635 10.808L22.629 10.801C22.5003 8.55008 21.6571 6.39886 20.222 4.66L19.214 5.564C20.5956 7.26392 21.332 9.39732 21.2934 11.5875C21.2548 13.7777 20.4436 15.8838 19.003 17.534L15.98 14.824C16.7538 13.919 17.1959 12.7772 17.2331 11.587C17.2704 10.3969 16.9007 9.22964 16.185 8.278L16.181 8.281L15.281 9.089C15.6682 9.63541 15.9129 10.2698 15.9929 10.9347C16.073 11.5996 15.9858 12.274 15.7393 12.8967C15.4928 13.5193 15.0948 14.0707 14.5814 14.5006C14.0679 14.9306 13.4553 15.2257 12.799 15.359L12.893 14.063ZM12 21.149L12.335 16.578L12.606 12.866C12.9378 12.7261 13.211 12.4758 13.3792 12.1574C13.5475 11.8391 13.6004 11.4723 13.5291 11.1194C13.4577 10.7664 13.2665 10.4491 12.9878 10.2211C12.7091 9.99308 12.3601 9.86851 12 9.86851C11.6399 9.86851 11.2909 9.99308 11.0122 10.2211C10.7335 10.4491 10.5423 10.7664 10.4709 11.1194C10.3996 11.4723 10.4525 11.8391 10.6208 12.1574C10.789 12.4758 11.0622 12.7261 11.394 12.866L11.665 16.578L12 21.149Z"/>
</g>
<defs>
<clipPath id="clip0">
<rect width="24" height="24" fill="white"/>
</clipPath>
</defs>
</svg>

<svg xmlns="http://www.w3.org/2000/svg" viewBox="0 0 24 24">
  <path d="M1.353 11.424c0 2.637.964 5.105 2.636 7.013l-1.007.903A11.968 11.968 0 010 11.424C0 8.065 1.38 5.029 3.604 2.85l.05.045L6.637 5.57a7.942 7.942 0 00-1.433 9.963l1.03-.923A6.59 6.59 0 017.65 6.478l1.02.915.909.814.941.844a2.778 2.778 0 00-1.311 2.367c0 1.23.795 2.273 1.899 2.646l.095 1.297a4.023 4.023 0 01-2.483-6.27l-.9-.809-.004-.003a5.233 5.233 0 00.205 6.546l-3.023 2.71a9.291 9.291 0 01-.21-11.97L3.777 4.66A10.599 10.599 0 001.37 10.8l-.006.008.005.004c-.011.204-.017.408-.017.612h.001zm11.54 2.639a2.793 2.793 0 00.588-5.013l.941-.844.908-.814 1.021-.915a6.59 6.59 0 011.417 8.132l1.029.923a7.942 7.942 0 00-1.433-9.963l2.981-2.673.05-.045A11.962 11.962 0 0124 11.424c0 2.98-1.095 5.769-2.982 7.916l-1.007-.903a10.61 10.61 0 002.619-7.625l.005-.004-.006-.007a10.598 10.598 0 00-2.407-6.141l-1.008.904a9.29 9.29 0 01-.211 11.97l-3.023-2.71a5.233 5.233 0 00.205-6.546l-.004.003-.9.808a4.024 4.024 0 01-2.482 6.27l.094-1.296zM12 21.149l.335-4.571.271-3.712a1.56 1.56 0 10-1.212 0l.271 3.712.335 4.571z"/>
</svg>
